resources/svg/view-column.svg

<svg viewBox="0 0 15 15" fill="none" xmlns="http://www.w3.org/2000/svg" fill="currentColor"><path fill-rule="evenodd" clip-rule="evenodd" d="M1 15V0h1v15H1zm4 0V0h1v15H5zm4 0V0h1v15H9zm4 0V0h1v15h-1z" fill="currentColor"/></svg>

<svg width="15" height="15" viewBox="0 0 15 15" fill="none" xmlns="http://www.w3.org/2000/svg">
<path fill-rule="evenodd" clip-rule="evenodd" d="M1 15L1 7.62939e-06H2L2 15H1ZM5 15L5 7.62939e-06H6L6 15H5ZM9 15L9 7.62939e-06H10L10 15H9ZM13 15L13 7.62939e-06H14L14 15H13Z" fill="black"/>
</svg>
